archdroid-icon-theme/Archdroid-LightGreen/apps/scalable/checkbox.svg

<svg xmlns="http://www.w3.org/2000/svg" viewBox="0 0 48 48" fill="#8BC34A"><path d="m38 6h-28c-2.21 0-4 1.79-4 4v28c0 2.21 1.79 4 4 4h28c2.21 0 4-1.79 4-4v-28c0-2.21-1.79-4-4-4m-18 28l-10-10 2.83-2.83 7.17 7.17 15.17-15.17 2.83 2.83-18 18"/></svg>

<?xml version="1.0" encoding="UTF-8" standalone="no"?>
<svg
   xmlns:dc="http://purl.org/dc/elements/1.1/"
   xmlns:cc="http://creativecommons.org/ns#"
   xmlns:rdf="http://www.w3.org/1999/02/22-rdf-syntax-ns#"
   xmlns:svg="http://www.w3.org/2000/svg"
   xmlns="http://www.w3.org/2000/svg"
   xmlns:sodipodi="http://sodipodi.sourceforge.net/DTD/sodipodi-0.dtd"
   xmlns:inkscape="http://www.inkscape.org/namespaces/inkscape"
   width="48"
   height="48"
   viewBox="0 0 48 48"
   id="svg2"
   version="1.1"
   inkscape:version="0.91 r13725"
   sodipodi:docname="checkbox.svg"
   style="fill:#8BC34A">
  <metadata
     id="metadata10">
    <rdf:RDF>
      <cc:Work
         rdf:about="">
        <dc:format>image/svg+xml</dc:format>
        <dc:type
           rdf:resource="http://purl.org/dc/dcmitype/StillImage" />
        <dc:title />
      </cc:Work>
    </rdf:RDF>
  </metadata>
  <defs
     id="defs8" />
  <sodipodi:namedview
     pagecolor="#ffffff"
     bordercolor="#666666"
     borderopacity="1"
     objecttolerance="10"
     gridtolerance="10"
     guidetolerance="10"
     inkscape:pageopacity="0"
     inkscape:pageshadow="2"
     inkscape:window-width="640"
     inkscape:window-height="480"
     id="namedview6"
     showgrid="false"
     fit-margin-top="0"
     fit-margin-left="0"
     fit-margin-right="0"
     fit-margin-bottom="0"
     inkscape:zoom="8.72367731730143"
     inkscape:cx="18"
     inkscape:cy="17.99999999999999"
     inkscape:window-x="0"
     inkscape:window-y="30"
     inkscape:window-maximized="0"
     inkscape:current-layer="svg2" />
  <path
     d="M 38,6 10,6 C 7.79,6 6,7.79 6,10 l 0,28 c 0,2.21 1.79,4 4,4 l 28,0 c 2.21,0 4,-1.79 4,-4 L 42,10 C 42,7.79 40.21,6 38,6 Z M 20,34 10,24 12.83,21.17 20,28.34 35.17,13.17 38,16 20,34 Z"
     id="path4"
     inkscape:connector-curvature="0" />
</svg>
